public/partners/kraken.svg

<svg fill="none" xmlns="http://www.w3.org/2000/svg" viewBox="0 0 422 439">
  <path d="M211.343 0c-27.626.00356483-54.981 5.44206-80.503 16.005-25.522 10.5629-48.7111 26.0433-68.2433 45.5574-19.5321 19.5142-35.0249 42.6796-45.5936 68.1746C6.43428 155.231.996432 182.555 1 210.149v90.048c0 7.963 3.16709 15.6 8.80455 21.231 5.63745 5.631 13.28355 8.794 21.25605 8.794 7.9726 0 15.6186-3.163 21.2561-8.794 5.6375-5.631 8.8045-13.268 8.8045-21.231v-90.048c0-7.956 3.1643-15.586 8.7966-21.212 5.6324-5.626 13.2715-8.786 21.2369-8.786 7.9654 0 15.6043 3.16 21.2373 8.786 5.632 5.626 8.796 13.256 8.796 21.212v90.048c0 7.963 3.167 15.6 8.805 21.231 5.637 5.631 13.283 8.794 21.256 8.794 7.972 0 15.618-3.163 21.256-8.794 5.637-5.631 8.804-13.268 8.804-21.231v-90.048c.235-7.811 3.507-15.222 9.121-20.664 5.615-5.442 13.13-8.485 20.954-8.485 7.823 0 15.338 3.043 20.953 8.485 5.614 5.442 8.886 12.853 9.121 20.664v90.048c0 7.953 3.163 15.579 8.792 21.202 5.63 5.624 13.266 8.783 21.228 8.783 7.961 0 15.597-3.159 21.227-8.783 5.63-5.623 8.793-13.249 8.793-21.202v-90.048c.235-7.811 3.506-15.222 9.121-20.664 5.614-5.442 13.13-8.485 20.953-8.485 7.823 0 15.339 3.043 20.953 8.485 5.614 5.442 8.886 12.853 9.121 20.664v90.048c0 7.963 3.167 15.6 8.805 21.231 5.637 5.631 13.283 8.794 21.256 8.794 7.972 0 15.618-3.163 21.256-8.794 5.637-5.631 8.804-13.268 8.804-21.231v-90.048c-.007-55.738-22.18-109.19-61.641-148.5995C320.664 22.1398 267.146-4.6e-7 211.343 0ZM76.5709 436.202V356.81h13.323v13.257c3.7849-9.403 10.5981-14.953 21.3471-14.953 2.271 0 4.542.462 5.753.771v14.182c-1.211-.308-3.785-.77-6.359-.77-13.3227 0-20.4383 10.637-20.4383 27.594v39.311H76.5709Zm68.9231 2.314c-15.292 0-27.101-8.633-27.101-23.432 0-15.262 10.447-21.891 22.71-24.203l19.379-3.7c6.207-1.233 9.992-3.238 9.992-9.404 0-6.629-5.602-11.099-16.654-11.099-9.992 0-18.167 4.162-18.924 13.874h-14.383c.303-16.341 14.837-26.053 33.459-26.053 21.498 0 30.128 11.099 30.128 23.741v41.314c0 3.546 1.665 5.396 4.693 5.396 2.574 0 4.088-.617 5.45-1.542v11.254c-2.119 1.85-5.753 3.083-10.143 3.083-6.51 0-11.809-3.546-13.172-10.329-3.482 4.933-10.749 11.1-25.434 11.1Zm-13.021-23.895c0 7.708 6.813 11.716 15.594 11.716 12.869 0 22.407-7.399 22.407-18.499v-12.795c-1.514 1.85-6.51 3.237-11.658 4.162l-12.868 2.467c-9.236 1.85-13.475 5.858-13.475 12.949Zm174.664 23.895c-22.256 0-39.364-14.645-39.364-42.394 0-25.899 16.503-41.623 38.152-41.623 24.678 0 38.152 17.574 38.152 37.461 0 3.237-.151 6.629-.605 9.095h-61.467c.908 15.416 10.9 24.974 25.283 24.974 11.355 0 17.259-3.7 21.196-12.949h14.231c-4.239 16.032-17.411 25.436-35.578 25.436Zm-25.132-49.023h47.69c-.606-14.799-10.447-22.815-23.77-22.815-14.08 0-22.709 8.633-23.92 22.815Zm72.957 46.71v-79.392h13.323v10.175c4.39-7.708 13.625-12.487 24.072-12.487 17.108 0 29.522 9.25 29.522 33.144v48.56h-13.626v-46.556c0-14.799-7.115-22.044-18.924-22.044-13.323 0-20.742 9.249-20.742 22.507v46.093h-13.625Z" fill="#7132F5"/>
  <path fill-rule="evenodd" clip-rule="evenodd" d="M.937988 356.813v79.39H14.5637v-25.745l13.0202-12.641 27.1001 38.386h15.8967l-33.7616-47.944 31.9448-31.448h-17.562l-36.6382 36.381v-36.379H.937988Zm200.355012 0v79.39h13.625v-25.745l13.021-12.641 27.1 38.386h15.896l-33.761-47.944 31.945-31.448h-17.562l-36.639 36.381v-36.379h-13.625Z" fill="#7132F5"/>
</svg>

<svg width="422" height="439" viewBox="0 0 422 439" fill="none" xmlns="http://www.w3.org/2000/svg">
<path d="M211.343 0C183.717 0.00356483 156.362 5.44206 130.84 16.005C105.318 26.5679 82.1289 42.0483 62.5967 61.5624C43.0646 81.0766 27.5718 104.242 17.0031 129.737C6.43428 155.231 0.996432 182.555 1 210.149V300.197C1 308.16 4.16709 315.797 9.80455 321.428C15.442 327.059 23.0881 330.222 31.0606 330.222C39.0332 330.222 46.6792 327.059 52.3167 321.428C57.9542 315.797 61.1212 308.16 61.1212 300.197V210.149C61.1212 202.193 64.2855 194.563 69.9178 188.937C75.5502 183.311 83.1893 180.151 91.1547 180.151C99.1201 180.151 106.759 183.311 112.392 188.937C118.024 194.563 121.188 202.193 121.188 210.149V300.197C121.188 308.16 124.355 315.797 129.993 321.428C135.63 327.059 143.276 330.222 151.249 330.222C159.221 330.222 166.867 327.059 172.505 321.428C178.142 315.797 181.309 308.16 181.309 300.197V210.149C181.544 202.338 184.816 194.927 190.43 189.485C196.045 184.043 203.56 181 211.384 181C219.207 181 226.722 184.043 232.337 189.485C237.951 194.927 241.223 202.338 241.458 210.149V300.197C241.458 308.15 244.621 315.776 250.25 321.399C255.88 327.023 263.516 330.182 271.478 330.182C279.439 330.182 287.075 327.023 292.705 321.399C298.335 315.776 301.498 308.15 301.498 300.197V210.149C301.733 202.338 305.004 194.927 310.619 189.485C316.233 184.043 323.749 181 331.572 181C339.395 181 346.911 184.043 352.525 189.485C358.139 194.927 361.411 202.338 361.646 210.149V300.197C361.646 308.16 364.813 315.797 370.451 321.428C376.088 327.059 383.734 330.222 391.707 330.222C399.679 330.222 407.325 327.059 412.963 321.428C418.6 315.797 421.767 308.16 421.767 300.197V210.149C421.76 154.411 399.587 100.959 360.126 61.5495C320.664 22.1398 267.146 -4.64955e-07 211.343 0Z" fill="#7132F5"/>
<path d="M76.5709 436.202V356.81H89.8939V370.067C93.6788 360.664 100.492 355.114 111.241 355.114C113.512 355.114 115.783 355.576 116.994 355.885V370.067C115.783 369.759 113.209 369.297 110.635 369.297C97.3123 369.297 90.1967 379.934 90.1967 396.891V436.202H76.5709Z" fill="#7132F5"/>
<path d="M145.494 438.516C130.202 438.516 118.393 429.883 118.393 415.084C118.393 399.822 128.84 393.193 141.103 390.881L160.482 387.181C166.689 385.948 170.474 383.943 170.474 377.777C170.474 371.148 164.872 366.678 153.82 366.678C143.828 366.678 135.653 370.84 134.896 380.552H120.513C120.816 364.211 135.35 354.499 153.972 354.499C175.47 354.499 184.1 365.598 184.1 378.24V419.554C184.1 423.1 185.765 424.95 188.793 424.95C191.367 424.95 192.881 424.333 194.243 423.408V434.662C192.124 436.512 188.49 437.745 184.1 437.745C177.59 437.745 172.291 434.199 170.928 427.416C167.446 432.349 160.179 438.516 145.494 438.516ZM132.473 414.621C132.473 422.329 139.286 426.337 148.067 426.337C160.936 426.337 170.474 418.938 170.474 407.838V395.043C168.96 396.893 163.964 398.28 158.816 399.205L145.948 401.672C136.712 403.522 132.473 407.53 132.473 414.621Z" fill="#7132F5"/>
<path d="M307.137 438.516C284.881 438.516 267.773 423.871 267.773 396.122C267.773 370.223 284.276 354.499 305.925 354.499C330.603 354.499 344.077 372.073 344.077 391.96C344.077 395.197 343.926 398.589 343.472 401.055H282.005C282.913 416.471 292.905 426.029 307.288 426.029C318.643 426.029 324.547 422.329 328.484 413.08H342.715C338.476 429.112 325.304 438.516 307.137 438.516ZM282.005 389.493H329.695C329.089 374.694 319.248 366.678 305.925 366.678C291.845 366.678 283.216 375.311 282.005 389.493Z" fill="#7132F5"/>
<path d="M354.962 436.203V356.811H368.285V366.986C372.675 359.278 381.91 354.499 392.357 354.499C409.465 354.499 421.879 363.749 421.879 387.643V436.203H408.253V389.647C408.253 374.848 401.138 367.603 389.329 367.603C376.006 367.603 368.587 376.852 368.587 390.11V436.203H354.962Z" fill="#7132F5"/>
<path fill-rule="evenodd" clip-rule="evenodd" d="M0.937988 356.813V436.203H14.5637V410.458L27.5839 397.817L54.684 436.203H70.5807L36.8191 388.259L68.7639 356.811H51.2019L14.5637 393.192V356.813H0.937988Z" fill="#7132F5"/>
<path fill-rule="evenodd" clip-rule="evenodd" d="M201.293 356.813V436.203H214.918V410.458L227.939 397.817L255.039 436.203H270.935L237.174 388.259L269.119 356.811H251.557L214.918 393.192V356.813H201.293Z" fill="#7132F5"/>
</svg>
